X:44
T: Der Tannhaeuser
N: Q0015B
O: Mitteleuropa, Schweiz, Luzern, Entlebuch, Escholzmatt
N: Grundton in der zweigestrichenen Oktave
R: Ballade, Wallfahrt, religioes
M: 3/4
L: 1/8
K: C
G, | CB,C3D | B,^F,G,3
C | FGFEC2 | C2D2z
C | EFG3C | DEF3
C | ECD2C2 | B,2C2z

@@@ Tune index: 673
